X:1
T:031 - Lugar para Cristo
T:Letra: Emily Elliott (1836-1897)
T:Trad.: Catarina K. Taylor
T:Música: Ira David Sankey (1840-1908)
M:4/4
L:1/8
Q:1/4=90
K:Fmaj
V:1
FA| "F"c2 cc c2 FA| "Gm"AG "C"FE "F"F2 FF| "Bb"B2 cd "F"c2 AF|"C"G4z2 FA| "F"c2 cc c2 FA| "Gm"AG "C"FE "F"F2 "Bb"Bd| "F/C"c2 AF A2 "C7"AG| "F"F4z2 || Hc3/B/ | "F"A2 AA G2 A2| "Bb"B2 d4 dd| "F"c2 cd c2 BA| "C"G4z2 Hc3/B/| "F"A2 AA G2 "F7"A2| ("Bb"B2 d2) "F"Hc2 FA| "F"c2 AF "(F/C)"A2 "C7"AG| "F"F4z2 |]
w: 1.~Tu dei-xas-te, Je-sus, o teu rei_no de luz, E bai-xas-teaes-te mun-do tão vil; Um pre-sé-pio,em Be-lém, Tu, Je-sus,_ Su-mo-bem, Es-co-lhes-te por ber-çoin-fan-til. Vem, Je-sus, ha-bi-tar co-mi-go,     Em mi-nhaal-mahá lu-gar; oh, vem já. Vem, Je-sus, ha-bi-tar co-mi_go, Em mi-nhaal-mahá lu-gar; oh, vem já.  
w: 2.~A-le-gra-ram-seos céus, com os san_tos de Deus, Sim, por te-res nas-ci-do, Je-sus, Vin-doos fi-lhos deA-dão con-ce-der_ sal-va-ção Pe-la mor-te,em res-ga-te, na cruz.
w: 3.~Tu vi-es-te, Se-nhor, re-ve-lar_nos a-mor, E tea-prou-ve do mal nos sal-var; Mas pro-vas-te do fel, do mo-te_jo cruel, Mor-te, en-fim, te fi-ze-ram pro-var.
w: 4.~Ou-tra vez tu vi-rás, e por mim_ cha-ma-rás, Ro-de-a-do dos an-jos de Deus; Oh! Que go-zo pra mim, se dis-se_res as-sim: "Um lu-gar te da-rei eu nos céus."
W: 
W:
W: 1. Tu deixaste, Jesus, o teu reino de luz,
W: E baixaste a este mundo tão vil;
W: Um presépio, em Belém, Tu, Jesus, Sumo-bem,
W: Escolheste por berço infantil.
W: 
W:    (Estribilho)
W:    Vem, Jesus, habitar comigo, 
W:    Em minha alma há lugar; oh, vem já.
W:    Vem, Jesus, habitar comigo, 
W:    Em minha alma há lugar; oh, vem já. 
W: 
W: 2. Alegraram-se os céus, com os santos de Deus,
W: Sim, por teres nascido, Jesus,
W: Vindo os filhos de Adão conceder salvação
W: Pela morte, em resgate, na cruz.
W: 
W: 
W: 
W: 3. Tu vieste, Senhor, revelar-nos amor,
W: E te aprouve do mal nos salvar;
W: Mas provaste do fel, do motejo cruel,
W: Morte, enfim, te fizeram provar.
W: 
W: 4. Outra vez tu virás, e por mim chamarás,
W: Rodeado dos anjos de Deus;
W: Oh! Que gozo pra mim, se disseres assim:
W: "Um lugar te darei eu nos céus."
W: 
W: 





